src/status/24/notification-new-40-symbolic.svg

<?xml version="1.0" encoding="UTF-8" standalone="no"?>
<svg
   xmlns:dc="http://purl.org/dc/elements/1.1/"
   xmlns:cc="http://creativecommons.org/ns#"
   xmlns:rdf="http://www.w3.org/1999/02/22-rdf-syntax-ns#"
   xmlns:svg="http://www.w3.org/2000/svg"
   xmlns="http://www.w3.org/2000/svg"
   id="svg8"
   version="1.1"
   width="24"
   height="24">
  <metadata
     id="metadata14">
    <rdf:RDF>
      <cc:Work
         rdf:about="">
        <dc:format>image/svg+xml</dc:format>
        <dc:type
           rdf:resource="http://purl.org/dc/dcmitype/StillImage" />
        <dc:title />
      </cc:Work>
    </rdf:RDF>
  </metadata>
  <defs
     id="defs12" />
  <path
     id="path2-3-5-2-2-5-1"
     d="M 14.123047 5.0078125 C 13.736314 4.9598251 13.339925 5.1412805 13.132812 5.5 L 13.126953 5.5078125 C 11.371283 5.0207203 9.4478862 5.8859923 8.5351562 7.4628906 C 8.5351562 7.4628906 6.0352194 11.794151 4.2871094 11.501953 C 4.2677094 11.503453 4.2511688 11.517641 4.2304688 11.519531 C 4.1511688 11.530801 4.0732831 11.553494 4.0019531 11.589844 C 3.9728531 11.604224 3.9440688 11.613609 3.9179688 11.630859 C 3.8191688 11.692739 3.7376544 11.776957 3.6777344 11.876953 C 3.4697344 12.23722 3.5917519 12.692891 3.9511719 12.900391 L 13.044922 18.150391 C 13.405182 18.358391 13.862312 18.237222 14.070312 17.876953 C 14.126912 17.775007 14.157909 17.661403 14.162109 17.544922 C 14.164109 17.513672 14.156297 17.484145 14.154297 17.453125 C 14.150297 17.372955 14.133816 17.293138 14.103516 17.21875 C 14.095516 17.20036 14.098944 17.180139 14.089844 17.162109 C 12.962234 15.795173 15.462891 11.462891 15.462891 11.462891 C 16.372661 9.8831267 16.160405 7.7843541 14.859375 6.5078125 L 14.865234 6.5 C 15.141344 6.0217082 14.976337 5.4089525 14.498047 5.1328125 C 14.378474 5.0637775 14.251958 5.0238083 14.123047 5.0078125 z M 5.9296875 15.205078 C 5.7032275 16.047006 6.0486431 16.938584 6.7832031 17.408203 C 7.5745231 17.911556 8.6093944 17.797023 9.2714844 17.132812 L 5.9296875 15.205078 z "
     style="color:#bebebe;overflow:visible;isolation:auto;mix-blend-mode:normal;fill:#363636;marker:none" />
</svg>

<svg xmlns="http://www.w3.org/2000/svg" width="24" height="24">
    <path d="M14.123 5.008a1 1 0 0 0-.99.492l-.006.008c-1.756-.487-3.68.378-4.592 1.955 0 0-2.5 4.331-4.248 4.039-.02.001-.036.016-.057.018a.729.729 0 0 0-.228.07c-.03.014-.058.024-.084.04a.734.734 0 0 0-.24.247.747.747 0 0 0 .273 1.023l9.094 5.25a.748.748 0 0 0 1.025-.273.738.738 0 0 0 .092-.332c.002-.031-.006-.06-.008-.092a.717.717 0 0 0-.05-.234c-.008-.019-.005-.039-.014-.057-1.128-1.367 1.373-5.7 1.373-5.7.91-1.579.697-3.678-.604-4.954l.006-.008a1.002 1.002 0 0 0-.742-1.492zM5.93 15.205a1.999 1.999 0 0 0 .853 2.203 1.999 1.999 0 0 0 2.488-.275L5.93 15.205z" style="color:#bebebe;overflow:visible;isolation:auto;mix-blend-mode:normal;fill:#050505;opacity:.7;marker:none"/>
</svg>
